X: 111
T:Missa Rosina / Kyrie
N: Derived from Jos0904a-Missa_Rosina-Kyrie.krn
C: Josquin des Prez
%%abc-version 2.0
%%abcx-abcm2ps-target-version 5.9.1 (29 Sep 2008)
%%abc-creator hum2abc beta
%%abcx-conversion-date 2019/02/12 16:15:43
%%abc-edited-by Jesse Rodin
%%abc-edited-by Jesse Rodin (May 2013)
%%abcx-initial-encoding-date 2013/05/10/
%%humdrum-veritas 2817763446
%%humdrum-veritas-data 3818087517
%%linebreak <none>
%%barnumbers 0
L: 1/4
M: 4/2
Q: 1/2=120
K: C clef=treble-8
Z2 | 
E6F2 | 
G4G4 | 
A4c4 | 
B8 | 
A8 | 
Z2 | 
E6F2 | 
G4G4 | 
A4c4 | 
B8 | 
A8 | 
Z2 | 
E6F2 | 
G4G4 | 
A4c4 | 
B8 | 
A8 | 
A8 ||  
 [K:C] 
Z2 | 
z4G4 | 
c6d2 | 
e8 | 
Z2 | 
z4G4 | 
c6d2 | 
e8 | 
[M:4/2]z8 | 
A6GF | 
E4C4 | 
z8 | 
A6GF | 
E4C4 | 
c8 ||  
 [K:C] [K:clef=treble-8][M:3/2]c4B2 | 
A4G2 | 
F6 | 
E6- | 
E6 | 
Z2 | 
[M:4/2]c4B2A2- | 
A2G2F4 | 
E8 | 
z8 | 
c4B2A2- | 
A2G2F4 | 
E8 | 
z8 | 
E8 |]  



